!!!OTL: IM HUT DER FREUNDSCHAFT
!!!ARE: Europa, Mitteleuropa, Deutschland
!!!SCT: F0700
!!!YEM: Copyright 1995, estate of Helmut Schaffrath.
**kern
*ICvox
*Ivox
*M4/4
*k[f#c#g#]
*A:
{4cc#
=1
4a
4e
8.ee
16dd
8.cc#
16b
=2
4.a
8a
4.a}
{8a
=3
8.b
16dd
8.f#
16b
4e
4d
=4
2.c#}
{4a
=5
4a
4e
8.ee
16dd
8.cc#
16b
=6
4.a
8a
4.a}
{8a
=7
8.ff#
16ee
8.dd
16cc#
4b
4a
=8
2.ee}
{4e
=9
4d
4d
4c#
4c#
=10
4.f#
8f#
4.e}
{8e
=11
4a
4cc#
4ee
4e
=12
4f#
2dd
8b
8g#
=13
2.a}
==
!!!AGN: Geselligkeits -, Bundes - Lied, Freundschaft
!!!ONB: ESAC (Essen Associative Code) Database: FINK
!!!AMT: simple quadruple
!!!AIN: vox
!!!EED: Helmut Schaffrath
!!!EEV: 1.0
*-
